X:1351
T:Belgian Waltz,2nd part. JNu.18
M:3/8
Q:40
S:James Nuttall MS,c1830?,Rossendale,East Lancs.
R:Waltz
O:England
A:East Lancashire
N:Z/Z/Z/Z/Z/Z/Z/Z.....
Z:Chris Partington
K:F
"secundo"z|.A.A.A|.A.A.A|.G.G.G|.A.A.A|
.A.A.A|.A.A.A|[.GB][.GB][.GB]|A2::!
z|E/C/E/C/E/C/|E/C/E/C/E/C/|F/C/F/C/F/C/|F/C/F/C/F/C/|
E/C/E/C/E/C/|E/C/E/C/E/C/|F/A/c/A/B/E/|F3:|]


